ticket-account.svg

<svg fill="currentColor" viewBox="0 0 24 24"><path d="M20 12a2 2 0 0 0 2 2v4a2 2 0 0 1-2 2H4a2 2 0 0 1-2-2v-4a2 2 0 0 0 2-2 2 2 0 0 0-2-2V6a2 2 0 0 1 2-2h16a2 2 0 0 1 2 2v4a2 2 0 0 0-2 2m-3.5 4.25c0-1.5-3-2.25-4.5-2.25s-4.5.75-4.5 2.25V17h9zm-4.5-4A2.25 2.25 0 0 0 14.25 10 2.25 2.25 0 0 0 12 7.75 2.25 2.25 0 0 0 9.75 10 2.25 2.25 0 0 0 12 12.25"/></svg>

<svg  viewBox="0 0 24 24" fill="currentColor"><path  d="M20,12A2,2 0 0,0 22,14V18A2,2 0 0,1 20,20H4A2,2 0 0,1 2,18V14C3.11,14 4,13.1 4,12A2,2 0 0,0 2,10V6C2,4.89 2.9,4 4,4H20A2,2 0 0,1 22,6V10A2,2 0 0,0 20,12M16.5,16.25C16.5,14.75 13.5,14 12,14C10.5,14 7.5,14.75 7.5,16.25V17H16.5V16.25M12,12.25A2.25,2.25 0 0,0 14.25,10A2.25,2.25 0 0,0 12,7.75A2.25,2.25 0 0,0 9.75,10A2.25,2.25 0 0,0 12,12.25Z"/></svg>
